!!!COM: Anon.
!!!OTL: San Serenin del Monte
!! Maria Cadilla de Martinez,
!! Juegos Y Canciones Infantiles de Puerto Rico
!! Talleres Graficos, Cas Baldrich, Brau 93, San Juan, P.R.
!! 1940.  Derechos reservados de la Autora
!! page 176
!! Allegro
**kern
*clefG2
*k[f#c#]
*M2/2
=1-
{4a
8a
8a
4dd
4f#
=
4a
8a},
{8a
4a
4a},
=
{4a
8a
8a
4dd
4f#
=
4a
8a},
{8a
4a
4a},
=
{4dd
8dd
8dd
4dd
4dd
=
2cc
4b}
4r
=
!! "bis"
{4a
4f#
4g
4e
=
1d}
==
*-
